src/Assets/icons/06-text/text-icon-lightblue-nobg.svg

<svg viewBox="0 0 2000 2000" xmlns="http://www.w3.org/2000/svg" xml:space="preserve" style="fill-rule:evenodd;clip-rule:evenodd;stroke-linecap:round;stroke-linejoin:round;stroke-miterlimit:1.5">
    <path style="fill:none" d="M8832.33 0h2000v2000h-2000z" transform="translate(-8832.33)"/>
    <path d="M424 353s134.794-10.921 137 175c2.206 185.921-1 949-1 949s11.044 135.98 191 144.33h729c-182.96-12.35-190-143.33-190-143.33s2.21-764.079 0-950c-2.21-185.921-137-175-137-175l-729-.121" style="fill:#449fe4;stroke:#fff;stroke-width:36.26px" transform="matrix(1.763 0 0 1.43797 -678.375 -408.156)"/>
    <path d="M661 567h233" style="fill:none;stroke:#fff;stroke-width:25.9px" transform="matrix(2.12596 0 0 1.71283 -993.537 -636.881)"/>
    <path d="M661 567h233" style="fill:none;stroke:#fff;stroke-width:25.9px" transform="matrix(2.12596 0 0 1.71283 -993.537 -159.014)"/>
    <path d="M661 567h233" style="fill:none;stroke:#fff;stroke-width:128.4px" transform="matrix(.42884 0 0 .3455 685.255 616.26)"/>
    <path d="M661 567h233" style="fill:none;stroke:#fff;stroke-width:94.24px" transform="matrix(.66607 0 0 .3455 690.02 616.26)"/>
    <path d="M661 567h233" style="fill:none;stroke:#fff;stroke-width:94.24px" transform="matrix(.66607 0 0 .3455 906.867 616.26)"/>
    <path d="M661 567h233" style="fill:none;stroke:#fff;stroke-width:25.9px" transform="matrix(2.12596 0 0 1.71283 -993.537 318.853)"/>
    <path d="M661 567h233" style="fill:none;stroke:#fff;stroke-width:128.4px" transform="matrix(.42884 0 0 .3455 685.255 1094.128)"/>
    <path d="M661 567h233" style="fill:none;stroke:#fff;stroke-width:94.24px" transform="matrix(.66607 0 0 .3455 690.02 1094.128)"/>
    <path d="M661 567h233" style="fill:none;stroke:#fff;stroke-width:94.24px" transform="matrix(.66607 0 0 .3455 906.867 1094.128)"/>
    <path d="M661 567h233" style="fill:none;stroke:#fff;stroke-width:25.9px" transform="matrix(2.12596 0 0 1.71283 -814.066 -318.303)"/>
    <path d="M661 567h233" style="fill:none;stroke:#fff;stroke-width:128.4px" transform="matrix(.42884 0 0 .3455 884.204 456.972)"/>
    <path d="M661 567h233" style="fill:none;stroke:#fff;stroke-width:128.4px" transform="matrix(.42884 0 0 .3455 126.676 456.972)"/>
    <path d="M661 567h233" style="fill:none;stroke:#fff;stroke-width:94.24px" transform="matrix(.66607 0 0 .3455 908.447 456.972)"/>
    <path d="M661 567h233" style="fill:none;stroke:#fff;stroke-width:25.9px" transform="matrix(2.12596 0 0 1.71283 -814.066 159.563)"/>
    <path d="M661 567h233" style="fill:none;stroke:#fff;stroke-width:128.4px" transform="matrix(.42884 0 0 .3455 884.204 934.837)"/>
    <path d="M661 567h233" style="fill:none;stroke:#fff;stroke-width:128.4px" transform="matrix(.42884 0 0 .3455 126.676 934.837)"/>
    <path d="M661 567h233" style="fill:none;stroke:#fff;stroke-width:94.24px" transform="matrix(.66607 0 0 .3455 908.447 934.837)"/>
    <path d="M661 567h233" style="fill:none;stroke:#fff;stroke-width:25.9px" transform="matrix(2.12596 0 0 1.71283 -814.066 637.43)"/>
    <path d="M661 567h233" style="fill:none;stroke:#fff;stroke-width:128.4px" transform="matrix(.42884 0 0 .3455 884.204 1412.704)"/>
    <path d="M661 567h233" style="fill:none;stroke:#fff;stroke-width:128.4px" transform="matrix(.42884 0 0 .3455 126.676 1412.704)"/>
    <path d="M661 567h233" style="fill:none;stroke:#fff;stroke-width:94.24px" transform="matrix(.66607 0 0 .3455 908.447 1412.704)"/>
    <path d="M661 567h233" style="fill:none;stroke:#fff;stroke-width:128.4px" transform="matrix(.42884 0 0 .3455 673.07 297.682)"/>
    <path d="M661 567h233" style="fill:none;stroke:#fff;stroke-width:128.4px" transform="matrix(.42884 0 0 .3455 830.434 297.682)"/>
    <path d="M661 567h233" style="fill:none;stroke:#fff;stroke-width:94.24px" transform="matrix(.66607 0 0 .3455 -29.064 297.682)"/>
    <path d="M661 567h233" style="fill:none;stroke:#fff;stroke-width:94.24px" transform="matrix(.66607 0 0 .3455 277.7 297.682)"/>
    <path d="M661 567h233" style="fill:none;stroke:#fff;stroke-width:94.24px" transform="matrix(.66607 0 0 .3455 907.376 297.682)"/>
    <path d="M661 567h233" style="fill:none;stroke:#fff;stroke-width:128.4px" transform="matrix(.42884 0 0 .3455 673.07 775.547)"/>
    <path d="M661 567h233" style="fill:none;stroke:#fff;stroke-width:128.4px" transform="matrix(.42884 0 0 .3455 830.434 775.547)"/>
    <path d="M661 567h233" style="fill:none;stroke:#fff;stroke-width:94.24px" transform="matrix(.66607 0 0 .3455 -29.064 775.547)"/>
    <path d="M661 567h233" style="fill:none;stroke:#fff;stroke-width:94.24px" transform="matrix(.66607 0 0 .3455 277.7 775.547)"/>
    <path d="M661 567h233" style="fill:none;stroke:#fff;stroke-width:94.24px" transform="matrix(.66607 0 0 .3455 907.376 775.547)"/>
    <path d="M661 567h233" style="fill:none;stroke:#fff;stroke-width:128.4px" transform="matrix(.42884 0 0 .3455 673.07 1253.414)"/>
    <path d="M661 567h233" style="fill:none;stroke:#fff;stroke-width:128.4px" transform="matrix(.42884 0 0 .3455 830.434 1253.414)"/>
    <path d="M661 567h233" style="fill:none;stroke:#fff;stroke-width:94.24px" transform="matrix(.66607 0 0 .3455 -29.064 1253.414)"/>
    <path d="M661 567h233" style="fill:none;stroke:#fff;stroke-width:94.24px" transform="matrix(.66607 0 0 .3455 277.7 1253.414)"/>
    <path d="M661 567h233" style="fill:none;stroke:#fff;stroke-width:94.24px" transform="matrix(.66607 0 0 .3455 907.376 1253.414)"/>
</svg>

<?xml version="1.0" encoding="UTF-8" standalone="no"?>
<!DOCTYPE svg PUBLIC "-//W3C//DTD SVG 1.1//EN" "http://www.w3.org/Graphics/SVG/1.1/DTD/svg11.dtd">
<svg width="100%" height="100%" viewBox="0 0 2000 2000" version="1.1" xmlns="http://www.w3.org/2000/svg" xmlns:xlink="http://www.w3.org/1999/xlink" xml:space="preserve" xmlns:serif="http://www.serif.com/" style="fill-rule:evenodd;clip-rule:evenodd;stroke-linecap:round;stroke-linejoin:round;stroke-miterlimit:1.5;">
    <g transform="matrix(1,0,0,1,-2208,-2289)">
        <g id="Pergament_lightblue_text-icon" transform="matrix(1,0,0,1,-6624.33,2289)">
            <rect x="8832.33" y="0" width="2000" height="2000" style="fill:none;"/>
            <g id="Pergament_lightblue_text-icon1" serif:id="Pergament_lightblue_text-icon" transform="matrix(1.17547,0,0,0.958765,8656.86,52.5113)">
                <g transform="matrix(1.49982,0,0,1.49982,-427.833,-480.48)">
                    <path d="M424,353C424,353 558.794,342.079 561,528C563.206,713.921 560,1477 560,1477C560,1477 571.044,1612.98 751,1621.33L1480,1621.33C1297.04,1608.98 1290,1478 1290,1478C1290,1478 1292.21,713.921 1290,528C1287.79,342.079 1153,353 1153,353L424,352.879" style="fill:rgb(68,159,228);stroke:white;stroke-width:36.26px;"/>
                </g>
                <g id="Text" transform="matrix(1.8086,0,0,1.7865,-690.586,-719.042)">
                    <g transform="matrix(1,0,0,1,-2.96512,0)">
                        <path d="M661,567L894,567" style="fill:none;stroke:white;stroke-width:25.9px;"/>
                    </g>
                    <g transform="matrix(1,0,0,1,-2.96512,278.992)">
                        <path d="M661,567L894,567" style="fill:none;stroke:white;stroke-width:25.9px;"/>
                        <g transform="matrix(0.201717,0,0,0.201717,789.665,452.627)">
                            <path d="M661,567L894,567" style="fill:none;stroke:white;stroke-width:128.4px;"/>
                        </g>
                        <g transform="matrix(0.313305,0,0,0.201717,791.906,452.627)">
                            <path d="M661,567L894,567" style="fill:none;stroke:white;stroke-width:94.24px;"/>
                        </g>
                        <g transform="matrix(0.313305,0,0,0.201717,893.906,452.627)">
                            <path d="M661,567L894,567" style="fill:none;stroke:white;stroke-width:94.24px;"/>
                        </g>
                    </g>
                    <g transform="matrix(1,0,0,1,-2.96512,557.984)">
                        <path d="M661,567L894,567" style="fill:none;stroke:white;stroke-width:25.9px;"/>
                        <g transform="matrix(0.201717,0,0,0.201717,789.665,452.627)">
                            <path d="M661,567L894,567" style="fill:none;stroke:white;stroke-width:128.4px;"/>
                        </g>
                        <g transform="matrix(0.313305,0,0,0.201717,791.906,452.627)">
                            <path d="M661,567L894,567" style="fill:none;stroke:white;stroke-width:94.24px;"/>
                        </g>
                        <g transform="matrix(0.313305,0,0,0.201717,893.906,452.627)">
                            <path d="M661,567L894,567" style="fill:none;stroke:white;stroke-width:94.24px;"/>
                        </g>
                    </g>
                    <g transform="matrix(1,0,0,1,-2.46512,146.681)">
                        <g transform="matrix(1,0,0,1,83.919,39.3139)">
                            <path d="M661,567L894,567" style="fill:none;stroke:white;stroke-width:25.9px;"/>
                        </g>
                        <g transform="matrix(0.201717,0,0,0.201717,882.746,491.941)">
                            <path d="M661,567L894,567" style="fill:none;stroke:white;stroke-width:128.4px;"/>
                        </g>
                        <g transform="matrix(0.201717,0,0,0.201717,526.422,491.941)">
                            <path d="M661,567L894,567" style="fill:none;stroke:white;stroke-width:128.4px;"/>
                        </g>
                        <g transform="matrix(0.313305,0,0,0.201717,894.149,491.941)">
                            <path d="M661,567L894,567" style="fill:none;stroke:white;stroke-width:94.24px;"/>
                        </g>
                    </g>
                    <g transform="matrix(1,0,0,1,-2.46512,425.672)">
                        <g transform="matrix(1,0,0,1,83.919,39.3139)">
                            <path d="M661,567L894,567" style="fill:none;stroke:white;stroke-width:25.9px;"/>
                        </g>
                        <g transform="matrix(0.201717,0,0,0.201717,882.746,491.941)">
                            <path d="M661,567L894,567" style="fill:none;stroke:white;stroke-width:128.4px;"/>
                        </g>
                        <g transform="matrix(0.201717,0,0,0.201717,526.422,491.941)">
                            <path d="M661,567L894,567" style="fill:none;stroke:white;stroke-width:128.4px;"/>
                        </g>
                        <g transform="matrix(0.313305,0,0,0.201717,894.149,491.941)">
                            <path d="M661,567L894,567" style="fill:none;stroke:white;stroke-width:94.24px;"/>
                        </g>
                    </g>
                    <g transform="matrix(1,0,0,1,-2.46512,704.664)">
                        <g transform="matrix(1,0,0,1,83.919,39.3139)">
                            <path d="M661,567L894,567" style="fill:none;stroke:white;stroke-width:25.9px;"/>
                        </g>
                        <g transform="matrix(0.201717,0,0,0.201717,882.746,491.941)">
                            <path d="M661,567L894,567" style="fill:none;stroke:white;stroke-width:128.4px;"/>
                        </g>
                        <g transform="matrix(0.201717,0,0,0.201717,526.422,491.941)">
                            <path d="M661,567L894,567" style="fill:none;stroke:white;stroke-width:128.4px;"/>
                        </g>
                        <g transform="matrix(0.313305,0,0,0.201717,894.149,491.941)">
                            <path d="M661,567L894,567" style="fill:none;stroke:white;stroke-width:94.24px;"/>
                        </g>
                    </g>
                    <g transform="matrix(1,0,0,1,-2.55561,4.62662)">
                        <g transform="matrix(0.201717,0,0,0.201717,783.524,540.997)">
                            <path d="M661,567L894,567" style="fill:none;stroke:white;stroke-width:128.4px;"/>
                        </g>
                        <g transform="matrix(0.201717,0,0,0.201717,857.544,540.997)">
                            <path d="M661,567L894,567" style="fill:none;stroke:white;stroke-width:128.4px;"/>
                        </g>
                        <g transform="matrix(0.313305,0,0,0.201717,453.256,540.997)">
                            <path d="M661,567L894,567" style="fill:none;stroke:white;stroke-width:94.24px;"/>
                        </g>
                        <g transform="matrix(0.313305,0,0,0.201717,597.551,540.997)">
                            <path d="M661,567L894,567" style="fill:none;stroke:white;stroke-width:94.24px;"/>
                        </g>
                        <g transform="matrix(0.313305,0,0,0.201717,893.736,540.997)">
                            <path d="M661,567L894,567" style="fill:none;stroke:white;stroke-width:94.24px;"/>
                        </g>
                    </g>
                    <g transform="matrix(1,0,0,1,-2.55561,283.618)">
                        <g transform="matrix(0.201717,0,0,0.201717,783.524,540.997)">
                            <path d="M661,567L894,567" style="fill:none;stroke:white;stroke-width:128.4px;"/>
                        </g>
                        <g transform="matrix(0.201717,0,0,0.201717,857.544,540.997)">
                            <path d="M661,567L894,567" style="fill:none;stroke:white;stroke-width:128.4px;"/>
                        </g>
                        <g transform="matrix(0.313305,0,0,0.201717,453.256,540.997)">
                            <path d="M661,567L894,567" style="fill:none;stroke:white;stroke-width:94.24px;"/>
                        </g>
                        <g transform="matrix(0.313305,0,0,0.201717,597.551,540.997)">
                            <path d="M661,567L894,567" style="fill:none;stroke:white;stroke-width:94.24px;"/>
                        </g>
                        <g transform="matrix(0.313305,0,0,0.201717,893.736,540.997)">
                            <path d="M661,567L894,567" style="fill:none;stroke:white;stroke-width:94.24px;"/>
                        </g>
                    </g>
                    <g transform="matrix(1,0,0,1,-2.55561,562.61)">
                        <g transform="matrix(0.201717,0,0,0.201717,783.524,540.997)">
                            <path d="M661,567L894,567" style="fill:none;stroke:white;stroke-width:128.4px;"/>
                        </g>
                        <g transform="matrix(0.201717,0,0,0.201717,857.544,540.997)">
                            <path d="M661,567L894,567" style="fill:none;stroke:white;stroke-width:128.4px;"/>
                        </g>
                        <g transform="matrix(0.313305,0,0,0.201717,453.256,540.997)">
                            <path d="M661,567L894,567" style="fill:none;stroke:white;stroke-width:94.24px;"/>
                        </g>
                        <g transform="matrix(0.313305,0,0,0.201717,597.551,540.997)">
                            <path d="M661,567L894,567" style="fill:none;stroke:white;stroke-width:94.24px;"/>
                        </g>
                        <g transform="matrix(0.313305,0,0,0.201717,893.736,540.997)">
                            <path d="M661,567L894,567" style="fill:none;stroke:white;stroke-width:94.24px;"/>
                        </g>
                    </g>
                </g>
            </g>
        </g>
    </g>
</svg>
